!!!COM: Palestrina, Giovanni Perluigi da
!!!OPR: Missa Repleatur os meum laude
!!!OMD: Credo
!!!OTL: Crucifixus
**kern	**kern	**kern
*Ibass	*Icalto	*Icant
!Bassus	!Altus	!Cantus
*clefF4	*clefG2	*clefG2
*k[]	*k[]	*k[]
*E:phr	*E:phr	*E:phr
*M4/2	*M4/2	*M4/2
=108	=108	=108
0r	1.e	0r
.	2c	.
=109	=109	=109
1r	1d	0r
[1A	1e	.
=110	=110	=110
2A]	1A	0r
2F	.	.
1G	2B	.
.	[2d	.
=111	=111	=111
1A	2d]	1.a
.	2c#	.
1D	1d	.
.	.	2f
=112	=112	=112
2E	1B	1g
1G	.	.
.	2r	1a
2F#	2A	.
=113	=113	=113
1G	2B	1d
.	1d	.
1E	.	2e
.	2c#	[2g
=114	=114	=114
2r	1d	2g]
2D	.	2f#
2E	2.B	2.g
[2G	.	.
.	4c	4a
=115	=115	=115
4G]	2d	2b
4F	.	.
4E	1e	1cc
4D	.	.
2C	.	.
2D	4d	4b
.	4c	4a
=116	=116	=116
2E	2B	2g
2F	2A	1a
1E	1B	.
.	.	2g#
=117	=117	=117
2r	[0A	2.a
2D	.	.
.	.	4g
2D	.	2f
2C	.	4e
.	.	4d
=118	=118	=118
2.F	1A]	2c
.	.	1f
4E	.	.
2D	2r	.
2C	2A	2e
=119	=119	=119
1BB	2A	1d
.	2G	.
[1AA	2.c	1r
.	4B	.
=120	=120	=120
1AA]	2A	2r
.	2G	2e
1r	1F	2e
.	.	2d
=121	=121	=121
2r	2.E	2.g
1C	.	.
.	4F	4f
.	1G	2e
2BB	.	2d
=122	=122	=122
2C	2r	1c
2AA	1A	.
1E	.	1B
.	2G	.
=123	=123	=123
1F	1.c	2A
.	.	1a
1E	.	.
.	2B	2g
=124	=124	=124
2r	4A	1.cc
.	4B	.
1A	4c	.
.	4d	.
.	4e	.
.	4f	.
2G	2g	2b
=125	=125	=125
2F	1c	2a
2E	.	2g
2F	1c	2a
4E	.	4g
4D	.	4f
=126	=126	=126
0C	2r	1e
.	2c	.
.	2e	2r
.	2e	2g
=127	=127	=127
0r	1f	2a
.	.	2a
.	2e	2.cc
.	[2c	.
.	.	4b
=128	=128	=128
0r	2c]	2a
.	2B	2g
.	4A	2cc
.	4B	.
.	4c	2cc
.	4d	.
=129	=129	=129
0r	4e	2.b
.	4f	.
.	2.g	.
.	.	4a
.	.	2b
.	4f	.
.	[2e	[2cc
=130	=130	=130
1C	4e]	4cc]
.	4d	4b
.	2c	1a
2E	1B	.
2E	.	2g#
=131	=131	=131
2.F	1A	2.a
4E	.	4g
2D	2r	2f
2C	2G	[2e
=132	=132	=132
2F	1A	2e]
2F	.	2d
2E	2.c	[1e
4AA	.	.
4BB	4B	.
=133	=133	=133
4C	2A	1e]
4D	.	.
2E	2G	.
4AA	1c	1r
4BB	.	.
4C	.	.
4D	.	.
=134	=134	=134
4E	1B	1g
4F	.	.
4G	.	.
4E	.	.
1F	2r	1a
.	2c	.
=135	=135	=135
1C	1e	2.cc
.	.	4b
1r	2f	2a
.	[2e	2g
=136	=136	=136
1C	4e]	1cc
.	4d	.
.	4e	.
.	4f	.
1E	4g	2b
.	4f	.
.	4e	[2cc
.	4d	.
=137	=137	=137
2.F	1c	4cc]
.	.	4b
.	.	4a
4E	.	4g
2D	2d	2f
2C	[2e	2g
=138	=138	=138
1F	2e]	1a
.	2d	.
2.E	[1e	1g
4D	.	.
=139	=139	=139
4E	1e]	2r
4F	.	.
4G	.	2g
4E	.	.
4F	2r	1a
4G	.	.
2A	2c	.
=140	=140	=140
1G	1d	1b
1C	1e	1cc
=141	=141	=141
0r	2f	2a
.	2d	2.dd
.	2.g	.
.	.	4cc
.	.	4b
.	4f	4a
=142	=142	=142
2r	4e	2g
.	4d	.
2C	2e	2cc
1D	2d	4b
.	.	4a
.	2c	[2a
=143	=143	=143
1E	1B	2a]
.	.	2g#
2F	[1A	2.a
4D	.	.
4E	.	4g
=144	=144	=144
4F	1A]	2f
4G	.	.
4A	.	4e
4B	.	4d
2c	2r	[1e
[2B	2G	.
=145	=145	=145
4B]	1A	1e]
4A	.	.
1A	.	.
.	1B	1r
2G#	.	.
=146	=146	=146
1A	2c	2r
.	2A	2c
2r	2B	1d
2F	[2d	.
=147	=147	=147
2G	4d]	1e
.	8c	.
.	8B	.
2A	2c#	.
2.D	1d	2.f
4E	.	4g
=148	=148	=148
2F	1r	2a
2G	.	2b
2A	2r	2cc
2E	2G	[2b
=149	=149	=149
1F	1A	4b]
.	.	4a
.	.	2.a
1E	1B	.
.	.	4g
.	.	[2g
=150	=150	=150
2r	2c	4g]
.	.	4f
2C	2c	2e
1D	2B	2d
.	[2A	2c
=151	=151	=151
1E	4A]	1B
.	8G	.
.	8F#	.
.	2G#	.
2F	1A	1r
2F	.	.
=152	=152	=152
2E	2G	2r
2.D	2F	2d
.	2E	1e
8C	.	.
8BB	.	.
2C#	[2A	.
=153	=153	=153
2D	2A]	1f
2D	1B	.
1E	.	2g
.	[2c	2g
=154	=154	=154
1F	2c]	1a
.	1d	.
1G	.	1b
.	[2G	.
=155	=155	=155
1C	2G]	1cc
.	2A	.
2D	1B	2r
[2E	.	[2g
=156	=156	=156
2E]	1c	2g]
1F	.	1a
.	1d	.
[2G	.	[2b
=157	=157	=157
2G]	0e	2b]
1A	.	1cc
2G#	.	[2b
=158	=158	=158
2.A	2r	4b]
.	.	4a
.	2c	1a
8G	.	.
8F	.	.
2B-	1d	.
2B-	.	2g
=159	=159	=159
[0A	1e	1.a
.	2f	.
.	[2e	2g
=160	=160	=160
0A]	2e]	2f
.	1d	4e
.	.	4d
.	.	1e
.	2c#	.
=161	=161	=161
2r	2.d	0f
1D	.	.
.	8c	.
.	8B	.
.	2A	.
2D	2B	.
=162	=162	=162
1A	2c	1e
.	4B	.
.	4A	.
2G#	1B	2r
2G#	.	[2e
=163	=163	=163
2A	2r	2e]
2A	1A	2e
1F	.	1a
.	2A	.
=164	=164	=164
2E	1e	2g#
2E	.	2g#
2F	2c	2a
2F	2c	2a
=165	=165	=165
2.D	1.d	0f
4E	.	.
4F	.	.
4G	.	.
[2A	2c	.
=166	=166	=166
2A]	1B	1e
2G	.	.
2.F	2A	2r
.	[2c	[2a
8E	.	.
8D	.	.
=167	=167	=167
2C	4c]	2a]
.	4B	.
2D	1A	2a
1BB	.	1dd
.	2G#	.
=168	=168	=168
0AA	1A	4cc
.	.	4b
.	.	4a
.	.	4g
.	2r	2f
.	[2A	2e
=169	=169	=169
2r	2A]	2a
1D	2A	2a
.	1d	1f
2D	.	.
=170	=170	=170
1A	2c#	1e
.	2c#	.
2F#	2d	1r
2F#	2d	.
=171	=171	=171
1G	4B	1r
.	4c	.
.	4d	.
.	4B	.
2.E	2c	2r
.	4B	[2e
4F#	4A	.
=172	=172	=172
2G	2B	2e]
2A	1e	2e
1F	.	1a
.	2d	.
=173	=173	=173
2E	1e	2g#
2E	.	2g#
2F	2r	2a
2F	2A	2a
=174	=174	=174
0D	2A	0f
.	2A	.
.	1d	.
=175	=175	=175
0AA	0c#	0e
*-	*-	*-
!!!CDT: 1525/^1526/-1594/2/2
!!!OCY: Italia
!!!AGN: Mass (Canonic)
!!!AST: renaissance, vocal
!!!ASW: Motet 1538 (Jacquet)
!!!PWK: Masses, Book 3
!!!RNB: Cadence finals: A,G,C
!!!YOR: Le Opere Complete, v. 6, p. 136
!!!YOO: Rome, Italy: Fratelli Scalera
!!!END: 1992//
!!!EED: John Miller
!!!YEC: Copyright 2000, John Miller
!!!YEN: United States of America
!!!YEM: Rights to all derivative electronic formats reserved.
!!!YEM: Refer to licensing agreement for further details.
!!!YEM: This file must be accompanied by the licensing agreement.
!!!YEM: A copy of the licensing agreement may be found at http://www.music-cog.ohio-state.edu/HumdrumDatabases/Palestrina/license.txt
!!!EMD: converted to Humdrum by Bret Aarden
